X:52
T:Maid on the Green
M:6/8
L:1/8
K:G Major
d|gfg e2d|Bee dBA|BGG dBG|FAA ABd|!
gfg e2d|Bee dBA|BGG dBA|BGG G2:|!
d|gfg afd|gfg a2a|bag agf|def g2a|!
bgb aga|gfg e2d|Bee dBA|BGG G2:|!
